assets/masks/Asset 1.svg

<?xml version="1.0" encoding="UTF-8"?>
<svg id="Layer_2" data-name="Layer 2" xmlns="http://www.w3.org/2000/svg" viewBox="0 0 1023.26 1174.54">
  <defs>
    <style>
      .cls-1 {
        fill: #000;
      }
    </style>
  </defs>
  <g id="Layer_6" data-name="Layer 6">
    <g>
      <path class="cls-1" d="M929.51,799.81v60.85c-28.08,9.3-59.5,19.71-92.16,30.54v-67.63l-.5.13c-30.48,7.84-62.02,15.97-92.94,23.94l-.3.08v149.04l-43.03,17.42c-16.94,6.86-33.42,13.53-49.13,19.9v-81.31l-3.23,1.07c-35.02,11.6-66.09,21.88-89.73,29.72v-88.16l-.5.13c-4.4,1.14-8.55,2.21-12.41,3.2-21.58,5.57-46.34,5.57-67.94,0l-12.89-3.32v88.15l-29.91-9.91c-18.6-6.16-39.75-13.17-62.52-20.71l-.52-.17v81.31h0c-28.78-11.66-60.14-24.35-92.16-37.31v-74.52l-.27-.09c-30.83-10.22-62.28-20.64-92.68-30.69h0v-67.69l-40.75-10.51c-18.37-4.73-36-9.28-52.49-13.54l-.5-.13h0s-67.82-17.47-67.82-17.47l-25.13-6.47v54.77l92.96,30.79h0v121.6l93.74,44.85v-67.69h0c24.69,9.98,50.06,20.26,75.23,30.45l16.92,6.85v74.48l.23.11c29.72,14.23,58.87,28.17,85.93,41.11l6.86,3.28.17.08c36.3,17.38,68.51,32.79,92.79,44.4l.17.08c4.4,2.11,8.54,4.09,12.4,5.93,10.46,5,21.61,7.61,33.16,7.77h2.19c11.53-.16,22.68-2.77,33.13-7.77l12.63-6.05v-88.17l8.95-3.62c22.87-9.26,51.46-20.83,83.21-33.67v81.37l93.75-44.85v-74.49c16.43-6.65,33.04-13.37,49.56-20.06l42.58-17.24h0s.69-.28.69-.28l.11-.04h0s35.64-14.43,35.64-14.43c20.02-8.1,39.22-15.88,57.07-23.11l.25-.1v-60.79l71.53-23.69,21.43-7.1v-54.77l-93.45,24.07-.3.08Z"/>
      <path class="cls-1" d="M930.31,556.49h0s-.38-.01-.38-.01l-.41-.02h0c-28.2-1.04-59.75-2.2-92.54-3.42l-.41-.02v67.71c-19.1.69-38.61,1.41-58.11,2.13l-34.83,1.28v75.32l.44-.05c30.77-3.39,62.15-6.86,92.5-10.21h0s93.75-10.35,93.75-10.35v-60.79h0c39.43-1.45,72.22-2.65,92.57-3.4h.38v-54.76h-.38c-20.35-.77-53.15-1.97-92.57-3.42Z"/>
      <path class="cls-1" d="M930.08,191.59l-.57-.27v121.73c-28.09-9.3-59.5-19.71-92.16-30.54h0v-67.63l-.25-.1c-16.63-6.74-33.58-13.6-50.58-20.48l-42.36-17.15-.55-.22v149.9l93.24,24.03c25.55,6.59,50.36,12.98,73.4,18.91l20.05,5.17v-60.78l60.87,20.16,32.09,10.63v-108.76l-93.18-44.59Z"/>
      <path class="cls-1" d="M464.76,279.14l.5-.13c4.4-1.14,8.55-2.21,12.41-3.2,21.58-5.55,46.34-5.55,67.93,0l12.3,3.16.11.03c21.34,5.51,48.82,12.59,79.85,20.58l13.61,3.5v-163.46l-92.96-37.63V13.8l-.23-.11c-4.41-2.1-8.55-4.08-12.4-5.93-10.62-5.08-22.46-7.77-34.24-7.77s-23.63,2.69-34.23,7.77l-12.23,5.86-.17.08c-20.61,9.86-46.95,22.46-76.68,36.68l-16.51,7.9v82.19l.55-.22c36.12-14.62,68.17-27.6,92.41-37.41h0v87.31h0s-16.66,5.52-16.66,5.52c-21.59,7.15-47.54,15.74-76.02,25.18l-.27.09v82.13l92.96-23.94h0Z"/>
      <path class="cls-1" d="M459.31,631.56l5.45.2v88.14l4.03.45c3.05.34,5.96.66,8.73.97,10.84,1.2,22.47,1.8,34.11,1.8s23.27-.6,34.11-1.8c2.76-.3,5.68-.63,8.73-.97l3.24-.36h0l.15-.02.65-.07h0c24.26-2.68,56.39-6.23,92.6-10.22l.35-.04v-162.63c28.89,1.06,60.37,2.23,92.54,3.42l.41.02v-75.28l-.35-.04c-32.32-3.57-63.95-7.07-92.96-10.27l-.44-.05v81.38l-29.33-1.08c-24.05-.88-45.46-1.67-62.83-2.31h0v-88.16l-4.03-.45c-3.05-.34-5.96-.66-8.73-.97-21.68-2.38-46.55-2.38-68.22,0-2.76.3-5.68.63-8.73.97l-3.24.36h0s-.15.02-.15.02l-.65.07h0c-24.26,2.68-56.39,6.23-92.6,10.22l-.35.04v163.44h.38c33.54,1.23,63.59,2.35,87.12,3.22Z"/>
      <path class="cls-1" d="M92.96,678.85l.47.05.33.04h0s92.15,10.17,92.15,10.17h0s.35.04.35.04l.44.05h0c30.35,3.35,61.74,6.82,92.51,10.21l.44.05v-75.32l-34.51-1.27c-19.62-.72-39.24-1.44-58.45-2.14v-67.71l-.41.02c-32.95,1.22-64.64,2.39-92.94,3.43h-.38v60.8h0c-39.41-1.45-72.2-2.65-92.54-3.4l-.41-.02v54.74l92.96,10.26h0Z"/>
      <path class="cls-1" d="M92.96,253.37v60.79l93.46-30.96.27-.09h0c30.4-10.07,61.85-20.49,92.68-30.7l.27-.09v-75.39l-8,3.24c-28.34,11.48-57.09,23.12-84.96,34.4h0v-67.69l-93.51,44.73-.23.11h0L.23,236.08l-.23.11v54.81l92.96-37.63h0Z"/>
    </g>
  </g>
</svg>

<?xml version="1.0" encoding="UTF-8" standalone="no"?>
<!DOCTYPE svg PUBLIC "-//W3C//DTD SVG 1.1//EN" "http://www.w3.org/Graphics/SVG/1.1/DTD/svg11.dtd">
<svg width="100%" height="100%" viewBox="0 0 1024 1175" version="1.1" xmlns="http://www.w3.org/2000/svg" xmlns:xlink="http://www.w3.org/1999/xlink" xml:space="preserve" xmlns:serif="http://www.serif.com/" style="fill-rule:evenodd;clip-rule:evenodd;stroke-linejoin:round;stroke-miterlimit:2;">
    <g id="Layer_6">
        <g>
            <path d="M929.51,799.81L929.51,860.66C901.43,869.96 870.01,880.37 837.35,891.2L837.35,823.57L836.85,823.7C806.37,831.54 774.83,839.67 743.91,847.64L743.61,847.72L743.61,996.76L700.58,1014.18C683.64,1021.04 667.16,1027.71 651.45,1034.08L651.45,952.77L648.22,953.84C613.2,965.44 582.13,975.72 558.49,983.56L558.49,895.4L557.99,895.53C553.59,896.67 549.44,897.74 545.58,898.73C524,904.3 499.24,904.3 477.64,898.73L464.75,895.41L464.75,983.56L434.84,973.65C416.24,967.49 395.09,960.48 372.32,952.94L371.8,952.77L371.8,1034.08C343.02,1022.42 311.66,1009.73 279.64,996.77L279.64,922.25L279.37,922.16C248.54,911.94 217.09,901.52 186.69,891.47L186.69,823.78L145.94,813.27C127.57,808.54 109.94,803.99 93.45,799.73L92.95,799.6L25.13,782.13L0,775.66L0,830.43L92.96,861.22L92.96,982.82L186.7,1027.67L186.7,959.98C211.39,969.96 236.76,980.24 261.93,990.43L278.85,997.28L278.85,1071.76L279.08,1071.87C308.8,1086.1 337.95,1100.04 365.01,1112.98L371.87,1116.26L372.04,1116.34C408.34,1133.72 440.55,1149.13 464.83,1160.74L465,1160.82C469.4,1162.93 473.54,1164.91 477.4,1166.75C487.86,1171.75 499.01,1174.36 510.56,1174.52L512.75,1174.52C524.28,1174.36 535.43,1171.75 545.88,1166.75L558.51,1160.7L558.51,1072.53L567.46,1068.91C590.33,1059.65 618.92,1048.08 650.67,1035.24L650.67,1116.61L744.42,1071.76L744.42,997.27C760.85,990.62 777.46,983.9 793.98,977.21L836.56,959.97L837.25,959.69L837.36,959.65L873,945.22C893.02,937.12 912.22,929.34 930.07,922.11L930.32,922.01L930.32,861.22L1001.85,837.53L1023.28,830.43L1023.28,775.66L929.83,799.73L929.53,799.81L929.51,799.81Z" style="fill-rule:nonzero;"/>
            <path d="M930.31,556.49L929.93,556.48L929.52,556.46C901.32,555.42 869.77,554.26 836.98,553.04L836.57,553.02L836.57,620.73C817.47,621.42 797.96,622.14 778.46,622.86L743.63,624.14L743.63,699.46L744.07,699.41C774.84,696.02 806.22,692.55 836.57,689.2C866.92,685.85 930.32,678.85 930.32,678.85L930.32,618.06C969.75,616.61 1002.54,615.41 1022.89,614.66L1023.27,614.66L1023.27,559.9L1022.89,559.9C1002.54,559.13 969.74,557.93 930.32,556.48L930.31,556.49Z" style="fill-rule:nonzero;"/>
            <path d="M930.08,191.59L929.51,191.32L929.51,313.05C901.42,303.75 870.01,293.34 837.35,282.51L837.35,214.88L837.1,214.78C820.47,208.04 803.52,201.18 786.52,194.3L744.16,177.15L743.61,176.93L743.61,326.83L836.85,350.86C862.4,357.45 887.21,363.84 910.25,369.77L930.3,374.94L930.3,314.16L991.17,334.32L1023.26,344.95L1023.26,236.19L930.08,191.6L930.08,191.59Z" style="fill-rule:nonzero;"/>
            <path d="M464.76,279.14L465.26,279.01C469.66,277.87 473.81,276.8 477.67,275.81C499.25,270.26 524.01,270.26 545.6,275.81L557.9,278.97L558.01,279C579.35,284.51 606.83,291.59 637.86,299.58L651.47,303.08L651.47,139.62L558.51,101.99L558.51,13.8L558.28,13.69C553.87,11.59 549.73,9.61 545.88,7.76C535.26,2.68 523.42,-0.01 511.64,-0.01C499.86,-0.01 488.01,2.68 477.41,7.76L465.18,13.62L465.01,13.7C444.4,23.56 418.06,36.16 388.33,50.38L371.82,58.28L371.82,140.47L372.37,140.25C408.49,125.63 440.54,112.65 464.78,102.84L464.78,190.15L448.12,195.67C426.53,202.82 400.58,211.41 372.1,220.85L371.83,220.94L371.83,303.07L464.79,279.13L464.76,279.14Z" style="fill-rule:nonzero;"/>
            <path d="M459.31,631.56L464.76,631.76L464.76,719.9L468.79,720.35C471.84,720.69 474.75,721.01 477.52,721.32C488.36,722.52 499.99,723.12 511.63,723.12C523.27,723.12 534.9,722.52 545.74,721.32C548.5,721.02 551.42,720.69 554.47,720.35L557.71,719.99L557.86,719.97L558.51,719.9C582.77,717.22 614.9,713.67 651.11,709.68L651.46,709.64L651.46,547.01C680.35,548.07 711.83,549.24 744,550.43L744.41,550.45L744.41,475.17L744.06,475.13C711.74,471.56 680.11,468.06 651.1,464.86L650.66,464.81L650.66,546.19L621.33,545.11C597.28,544.23 575.87,543.44 558.5,542.8L558.5,454.64L554.47,454.19C551.42,453.85 548.51,453.53 545.74,453.22C524.06,450.84 499.19,450.84 477.52,453.22C474.76,453.52 471.84,453.85 468.79,454.19L465.55,454.55L465.4,454.57L464.75,454.64C440.49,457.32 408.36,460.87 372.15,464.86L371.8,464.9L371.8,628.34L372.18,628.34C405.72,629.57 435.77,630.69 459.3,631.56L459.31,631.56Z" style="fill-rule:nonzero;"/>
            <path d="M92.96,678.85L93.43,678.9L93.76,678.94L185.91,689.11L186.26,689.15L186.7,689.2C217.05,692.55 248.44,696.02 279.21,699.41L279.65,699.46L279.65,624.14L245.14,622.87C225.52,622.15 205.9,621.43 186.69,620.73L186.69,553.02L186.28,553.04C153.33,554.26 121.64,555.43 93.34,556.47L92.96,556.47L92.96,617.27C53.55,615.82 20.76,614.62 0.42,613.87L0.01,613.85L0.01,668.59L92.97,678.85L92.96,678.85Z" style="fill-rule:nonzero;"/>
            <path d="M92.96,253.37L92.96,314.16L186.42,283.2L186.69,283.11C217.09,273.04 248.54,262.62 279.37,252.41L279.64,252.32L279.64,176.93L271.64,180.17C243.3,191.65 214.55,203.29 186.68,214.57L186.68,146.88L93.17,191.61L92.94,191.72L0.23,236.08L0,236.19L0,291L92.96,253.37Z" style="fill-rule:nonzero;"/>
        </g>
    </g>
</svg>
